icons/black/rpur.svg

<svg xmlns="http://www.w3.org/2000/svg" viewBox="0 0 48 48"><defs><style>.a{fill:none;stroke:#000;stroke-linecap:round;stroke-linejoin:round;}</style></defs><path class="a" d="M28.6892,28.7284l-5.0053-.01-2.4941-4.34,2.5112-4.33,5.0053.01,2.4942,4.34ZM37.04,42.4448l5.46-9.2471-3.663-2.2314-4.029,7.1178-8.3341.0706.0453,4.2889,10.5206.0011M37.0469,5.604,26.5226,5.5552l-.0487,4.2889,7.9628-.0949,4.3154,7.13,3.6648-2.2285-5.37-9.0468M5.5,23.8211l5.0029,8.7882,3.75-2.081-3.86-6.4914,3.86-6.9231-3.75-2.081L5.5,23.8211"/></svg>

<svg xmlns="http://www.w3.org/2000/svg" viewBox="0 0 48 48"><defs><style>.a{fill:none;stroke:#000eff;stroke-linecap:round;stroke-linejoin:round;}</style></defs><path class="a" d="M28.69,28.73h-5l-2.49-4.34,2.51-4.33h5L31.2,24.4ZM37,42.44,42.5,33.2,38.84,31l-4,7.11-8.34.07.05,4.29H37m0-36.84-10.53,0-.05,4.28,8-.09,4.31,7.13,3.67-2.23-5.37-9M5.5,23.82l5,8.79,3.75-2.08L10.39,24l3.86-6.93L10.5,15l-5,8.79"/></svg>
